X: 8985
T: Cutting The Waves
R: reel
M: 4/4
K: Dmajor
|:Ad d2 fdAd|BABc dAFB|Ad d2 fdAF|B,DFB AFEF|
Ad d2 fdAd|BABc d2 de|faed BAFE|F2 AF EDB,D:|
FBBA B2 AB|dFFD EDB,D|FBBA B2 dB|A2 AB ABFA|
B2 BA B2 AB|dFFD EDB,D|dBBA BedB|AFED B,E E2|
FBBA B2 AB|dFFD EDB,D|FBBA B2 dB|A2 AB ABde|
fBBA B2 AB|dFFD EDB,D|dBBA BedB|AFED B,E E2||

